SVG/venus-double.svg

<?xml version="1.0" encoding="utf-8"?>
<!-- Generated by IcoMoon.io -->
<!DOCTYPE svg PUBLIC "-//W3C//DTD SVG 1.1//EN" "http://www.w3.org/Graphics/SVG/1.1/DTD/svg11.dtd">
<svg version="1.1" xmlns="http://www.w3.org/2000/svg" xmlns:xlink="http://www.w3.org/1999/xlink" width="14" height="14" viewBox="0 0 14 14">
<path fill="#444444" d="M13.984 4.133q0.094 1.211-0.41 2.281t-1.453 1.75-2.121 0.805v2.031h1.75q0.109 0 0.18 0.070t0.070 0.18v0.5q0 0.109-0.070 0.18t-0.18 0.070h-1.75v1.75q0 0.109-0.070 0.18t-0.18 0.070h-0.5q-0.109 0-0.18-0.070t-0.070-0.18v-1.75h-4v1.75q0 0.109-0.070 0.18t-0.18 0.070h-0.5q-0.109 0-0.18-0.070t-0.070-0.18v-1.75h-1.75q-0.109 0-0.18-0.070t-0.070-0.18v-0.5q0-0.109 0.070-0.18t0.18-0.070h1.75v-2.031q-1.172-0.125-2.121-0.805t-1.453-1.75-0.41-2.281q0.133-1.609 1.285-2.785t2.754-1.324q1.609-0.164 2.945 0.734 1.336-0.898 2.945-0.734 1.602 0.148 2.754 1.324t1.285 2.785zM7 6.945q1-1.023 1-2.445t-1-2.445q-1 1.023-1 2.445t1 2.445zM4.5 8q0.898 0 1.703-0.445-1.203-1.289-1.203-3.055 0-1.75 1.203-3.055-0.805-0.445-1.703-0.445-1.445 0-2.473 1.027t-1.027 2.473 1.027 2.473 2.473 1.027zM9 11v-2.031q-1.070-0.117-2-0.734-0.93 0.617-2 0.734v2.031h4zM9.5 8q1.445 0 2.473-1.027t1.027-2.473-1.027-2.473-2.473-1.027q-0.898 0-1.703 0.445 1.203 1.305 1.203 3.055 0 1.766-1.203 3.055 0.805 0.445 1.703 0.445z"></path>
</svg>

<svg xmlns="http://www.w3.org/2000/svg" viewBox="0 0 14 14"><path d="M13.984 4.133q.094 1.21-.41 2.28t-1.453 1.75T10 8.97V11h1.75q.11 0 .18.07t.07.18v.5q0 .11-.07.18t-.18.07H10v1.75q0 .11-.07.18t-.18.07h-.5q-.11 0-.18-.07T9 13.75V12H5v1.75q0 .11-.07.18t-.18.07h-.5q-.11 0-.18-.07T4 13.75V12H2.25q-.11 0-.18-.07T2 11.75v-.5q0-.11.07-.18t.18-.07H4V8.97q-1.172-.126-2.12-.806T.425 6.414t-.41-2.28Q.15 2.524 1.3 1.347T4.056.024Q5.666-.14 7 .758 8.336-.14 9.945.024q1.602.148 2.754 1.324t1.283 2.785zM7 6.945Q8 5.922 8 4.5T7 2.055Q6 3.078 6 4.5t1 2.445zM4.5 8q.898 0 1.703-.445Q5 6.265 5 4.5q0-1.75 1.203-3.055Q5.398 1 4.5 1 3.055 1 2.027 2.027T1 4.5t1.027 2.473T4.5 8zM9 11V8.97q-1.07-.118-2-.735-.93.617-2 .734V11h4zm.5-3q1.445 0 2.473-1.027T13 4.5t-1.027-2.473T9.5 1q-.898 0-1.703.445Q9 2.75 9 4.5q0 1.766-1.203 3.055Q8.602 8 9.5 8z" /></svg>
